VirtualDi_NX-KS3.cube
#copyrighted material#www.KinoSeed.com#Do not distribute#For personal, non-commercial use#
#vdi001#1#0.5#0.5#0.5#0.15#10#1#1#1#1#NRM#NXKS3#1#6#
LUT_3D_SIZE 5
DOMAIN_MIN 0.000000 0.000000 0.000000
DOMAIN_MAX 0.827586 0.827586 0.827586
0 0 0
0.18823529411764706 0.011764705882352941 0.00784313725490196
0.45098039215686275 0.01568627450980392 0.01568627450980392
0.6941176470588235 0.027450980392156862 0.03137254901960784
0.8196078431372549 0.0196078431372549 0.03529411764705882
0.0196078431372549 0.17254901960784313 0.011764705882352941
0.1843137254901961 0.1803921568627451 0.0196078431372549
0.5019607843137255 0.1450980392156863 0.03529411764705882
0.7568627450980392 0.12156862745098039 0.06666666666666667
0.8235294117647058 0.07450980392156863 0.054901960784313725
0.023529411764705882 0.39215686274509803 0.0196078431372549
0.06666666666666667 0.35294117647058826 0.047058823529411764
0.3686274509803922 0.3568627450980392 0.027450980392156862
0.7333333333333333 0.34901960784313724 0.047058823529411764
0.9215686274509803 0.3568627450980392 0.058823529411764705
0.023529411764705882 0.6196078431372549 0.023529411764705882
0.047058823529411764 0.5607843137254902 0.03137254901960784
0.06274509803921569 0.4823529411764706 0.0196078431372549
0.5803921568627451 0.5764705882352941 0.023529411764705882
0.8980392156862745 0.6392156862745098 0.054901960784313725
0.027450980392156862 0.788235294117647 0.03137254901960784
0.0392156862745098 0.7607843137254902 0.027450980392156862
0.050980392156862744 0.6980392156862745 0.027450980392156862
0.2901960784313726 0.7294117647058823 0.03137254901960784
0.8235294117647058 0.8509803921568627 0.03529411764705882
0.01568627450980392 0 0.14901960784313725
0.2235294117647059 0.00392156862745098 0.1568627450980392
0.4823529411764706 0.01568627450980392 0.10980392156862745
0.7176470588235294 0.023529411764705882 0.10980392156862745
0.803921568627451 0.0196078431372549 0.12549019607843137
0.01568627450980392 0.1843137254901961 0.1607843137254902
0.1803921568627451 0.17254901960784313 0.16470588235294117
0.44313725490196076 0.1607843137254902 0.14901960784313725
0.6509803921568628 0.10980392156862745 0.13333333333333333
0.7647058823529411 0.07450980392156863 0.10980392156862745
0.03529411764705882 0.3764705882352941 0.050980392156862744
0.09019607843137255 0.3254901960784314 0.09019607843137255
0.3411764705882353 0.33725490196078434 0.09803921568627451
0.6862745098039216 0.3568627450980392 0.12549019607843137
0.8745098039215686 0.35294117647058826 0.1411764705882353
0.027450980392156862 0.615686274509804 0.047058823529411764
0.07450980392156863 0.5254901960784314 0.07450980392156863
0.06666666666666667 0.4627450980392157 0.0392156862745098
0.5725490196078431 0.5647058823529412 0.09803921568627451
0.8862745098039215 0.6431372549019608 0.14901960784313725
0.027450980392156862 0.7843137254901961 0.050980392156862744
0.07058823529411765 0.7372549019607844 0.07450980392156863
0.07058823529411765 0.7058823529411765 0.054901960784313725
0.23921568627450981 0.7058823529411765 0.058823529411764705
0.8196078431372549 0.8431372549019608 0.13725490196078433
0.00784313725490196 0 0.4
0.19607843137254902 0.00392156862745098 0.4392156862745098
0.49411764705882355 0.01568627450980392 0.3686274509803922
0.7490196078431373 0.027450980392156862 0.3137254901960784
0.8588235294117647 0.0196078431372549 0.3843137254901961
0.06666666666666667 0.07450980392156863 0.49019607843137253
0.1568627450980392 0.09019607843137255 0.3803921568627451
0.43137254901960786 0.10196078431372549 0.3333333333333333
0.6509803921568628 0.09411764705882353 0.2784313725490196
0.7686274509803922 0.06666666666666667 0.2549019607843137
0.023529411764705882 0.3843137254901961 0.3411764705882353
0.09411764705882353 0.3411764705882353 0.3058823529411765
0.3333333333333333 0.3176470588235294 0.2901960784313726
0.6196078431372549 0.3137254901960784 0.2823529411764706
0.796078431372549 0.2901960784313726 0.2784313725490196
0.03137254901960784 0.6039215686274509 0.19215686274509805
0.07450980392156863 0.5294117647058824 0.17647058823529413
0.12156862745098039 0.4196078431372549 0.1607843137254902
0.5803921568627451 0.5686274509803921 0.22745098039215686
0.8588235294117647 0.6431372549019608 0.25882352941176473
0.03137254901960784 0.7764705882352941 0.12156862745098039
0.06274509803921569 0.7215686274509804 0.08627450980392157
0.12549019607843137 0.6392156862745098 0.12549019607843137
0.2627450980392157 0.6549019607843137 0.13725490196078433
0.803921568627451 0.8196078431372549 0.23529411764705882
0.011764705882352941 0.00392156862745098 0.6313725490196078
0.1411764705882353 0.01568627450980392 0.7019607843137254
0.5058823529411764 0.0196078431372549 0.6627450980392157
0.7686274509803922 0.043137254901960784 0.6235294117647059
0.8901960784313725 0.03137254901960784 0.7098039215686275
0.06666666666666667 0.06666666666666667 0.7372549019607844
0.09411764705882353 0.09019607843137255 0.6313725490196078
0.4392156862745098 0.09019607843137255 0.596078431372549
0.6941176470588235 0.10980392156862745 0.5568627450980392
0.8392156862745098 0.09411764705882353 0.5647058823529412
0.054901960784313725 0.2196078431372549 0.6862745098039216
0.08627450980392157 0.1843137254901961 0.5764705882352941
0.2784313725490196 0.16862745098039217 0.49019607843137253
0.5254901960784314 0.13725490196078433 0.4235294117647059
0.7529411764705882 0.13333333333333333 0.4392156862745098
0.027450980392156862 0.6352941176470588 0.5882352941176471
0.08627450980392157 0.5450980392156862 0.5019607843137255
0.1450980392156863 0.4666666666666667 0.43137254901960786
0.5529411764705883 0.5411764705882353 0.4980392156862745
0.8392156862745098 0.592156862745098 0.5333333333333333
0.043137254901960784 0.8588235294117647 0.47058823529411764
0.10588235294117647 0.796078431372549 0.4392156862745098
0.16470588235294117 0.7098039215686275 0.3764705882352941
0.3215686274509804 0.6941176470588235 0.41568627450980394
0.8117647058823529 0.8235294117647058 0.49411764705882355
0.011764705882352941 0 0.8313725490196079
0.1411764705882353 0.011764705882352941 0.8549019607843137
0.5098039215686274 0.01568627450980392 0.8235294117647058
0.807843137254902 0.027450980392156862 0.8274509803921568
0.8941176470588236 0.03529411764705882 0.8745098039215686
0.06274509803921569 0.06274509803921569 0.8941176470588236
0.09019607843137255 0.08235294117647059 0.807843137254902
0.42745098039215684 0.08235294117647059 0.803921568627451
0.7372549019607844 0.09019607843137255 0.807843137254902
0.8431372549019608 0.10196078431372549 0.792156862745098
0.06666666666666667 0.09411764705882353 0.8862745098039215
0.07058823529411765 0.07058823529411765 0.7647058823529411
0.16862745098039217 0.07058823529411765 0.6313725490196078
0.5568627450980392 0.10196078431372549 0.6549019607843137
0.7647058823529411 0.13725490196078433 0.6588235294117647
0.043137254901960784 0.5176470588235295 0.8509803921568627
0.08235294117647059 0.44313725490196076 0.7686274509803922
0.12549019607843137 0.3764705882352941 0.6627450980392157
0.5411764705882353 0.4392156862745098 0.7137254901960784
0.807843137254902 0.4666666666666667 0.7058823529411765
0.0392156862745098 0.8470588235294118 0.807843137254902
0.10588235294117647 0.788235294117647 0.7450980392156863
0.17254901960784313 0.7137254901960784 0.6745098039215687
0.30980392156862746 0.7019607843137254 0.6588235294117647
0.803921568627451 0.796078431372549 0.7568627450980392
