VirtualDi_NX-KS3.cube
#copyrighted material#www.KinoSeed.com#Do not distribute#For personal, non-commercial use#
#vdi001#1#0.5#0.5#0.5#0.15#10#1#1#1#1#NRM#NXKS3#1#6#
LUT_3D_SIZE 30
0 0 0
0.023529411764705882 0.00784313725490196 0
0.050980392156862744 0.011764705882352941 0.00392156862745098
0.0784313725490196 0.011764705882352941 0.00392156862745098
0.12156862745098039 0.01568627450980392 0.00392156862745098
0.15294117647058825 0.01568627450980392 0.00784313725490196
0.18823529411764706 0.011764705882352941 0.00784313725490196
0.2235294117647059 0.01568627450980392 0.00784313725490196
0.2980392156862745 0.00784313725490196 0.00784313725490196
0.3254901960784314 0.011764705882352941 0.00784313725490196
0.3764705882352941 0.00784313725490196 0.011764705882352941
0.4196078431372549 0.011764705882352941 0.011764705882352941
0.45098039215686275 0.01568627450980392 0.01568627450980392
0.49411764705882355 0.01568627450980392 0.01568627450980392
0.5411764705882353 0.0196078431372549 0.0196078431372549
0.5764705882352941 0.027450980392156862 0.023529411764705882
0.6274509803921569 0.027450980392156862 0.027450980392156862
0.6588235294117647 0.03137254901960784 0.03137254901960784
0.6941176470588235 0.027450980392156862 0.03137254901960784
0.7254901960784313 0.023529411764705882 0.03529411764705882
0.7450980392156863 0.023529411764705882 0.03529411764705882
0.7647058823529411 0.023529411764705882 0.03529411764705882
0.7843137254901961 0.023529411764705882 0.03529411764705882
0.8 0.023529411764705882 0.03529411764705882
0.8196078431372549 0.0196078431372549 0.03529411764705882
0.8235294117647058 0.023529411764705882 0.0392156862745098
0.8274509803921568 0.027450980392156862 0.043137254901960784
0.8352941176470589 0.027450980392156862 0.047058823529411764
0.8392156862745098 0.03137254901960784 0.054901960784313725
0.8392156862745098 0.03137254901960784 0.054901960784313725
0.011764705882352941 0.027450980392156862 0
0.0392156862745098 0.03137254901960784 0.00392156862745098
0.06274509803921569 0.03137254901960784 0.00392156862745098
0.10588235294117647 0.0392156862745098 0.00392156862745098
0.13333333333333333 0.0392156862745098 0.00784313725490196
0.17647058823529413 0.03529411764705882 0.00784313725490196
0.2196078431372549 0.0392156862745098 0.00784313725490196
0.2549019607843137 0.03529411764705882 0.00784313725490196
0.2980392156862745 0.03137254901960784 0.011764705882352941
0.34509803921568627 0.027450980392156862 0.01568627450980392
0.39215686274509803 0.03137254901960784 0.0196078431372549
0.4392156862745098 0.027450980392156862 0.0196078431372549
0.49019607843137253 0.027450980392156862 0.023529411764705882
0.5294117647058824 0.03137254901960784 0.023529411764705882
0.5647058823529412 0.03137254901960784 0.027450980392156862
0.6078431372549019 0.03529411764705882 0.027450980392156862
0.6549019607843137 0.03529411764705882 0.03529411764705882
0.6901960784313725 0.0392156862745098 0.0392156862745098
0.7098039215686275 0.0392156862745098 0.0392156862745098
0.7372549019607844 0.0392156862745098 0.043137254901960784
0.7529411764705882 0.0392156862745098 0.043137254901960784
0.7725490196078432 0.03529411764705882 0.0392156862745098
0.788235294117647 0.03529411764705882 0.043137254901960784
0.807843137254902 0.03529411764705882 0.0392156862745098
0.8196078431372549 0.03529411764705882 0.043137254901960784
0.8235294117647058 0.03529411764705882 0.047058823529411764
0.8235294117647058 0.0392156862745098 0.047058823529411764
0.8313725490196079 0.0392156862745098 0.050980392156862744
0.8392156862745098 0.0392156862745098 0.054901960784313725
0.8392156862745098 0.043137254901960784 0.058823529411764705
0.011764705882352941 0.054901960784313725 0.00392156862745098
0.03529411764705882 0.058823529411764705 0.00392156862745098
0.07058823529411765 0.06666666666666667 0.00784313725490196
0.10196078431372549 0.06274509803921569 0.00784313725490196
0.13725490196078433 0.07058823529411765 0.00784313725490196
0.17647058823529413 0.07058823529411765 0.00784313725490196
0.2235294117647059 0.06666666666666667 0.00784313725490196
0.27058823529411763 0.06274509803921569 0.011764705882352941
0.30980392156862746 0.054901960784313725 0.0196078431372549
0.3607843137254902 0.058823529411764705 0.0196078431372549
0.403921568627451 0.058823529411764705 0.023529411764705882
0.4392156862745098 0.050980392156862744 0.027450980392156862
0.48627450980392156 0.047058823529411764 0.027450980392156862
0.5294117647058824 0.047058823529411764 0.03137254901960784
0.5764705882352941 0.043137254901960784 0.03529411764705882
0.6196078431372549 0.047058823529411764 0.0392156862745098
0.6627450980392157 0.047058823529411764 0.043137254901960784
0.6901960784313725 0.050980392156862744 0.043137254901960784
0.7254901960784313 0.054901960784313725 0.047058823529411764
0.7450980392156863 0.050980392156862744 0.050980392156862744
0.7607843137254902 0.050980392156862744 0.047058823529411764
0.7803921568627451 0.050980392156862744 0.047058823529411764
0.796078431372549 0.047058823529411764 0.047058823529411764
0.8117647058823529 0.043137254901960784 0.043137254901960784
0.8156862745098039 0.047058823529411764 0.047058823529411764
0.8196078431372549 0.047058823529411764 0.050980392156862744
0.8235294117647058 0.050980392156862744 0.050980392156862744
0.8274509803921568 0.050980392156862744 0.054901960784313725
0.8313725490196079 0.050980392156862744 0.058823529411764705
0.8352941176470589 0.050980392156862744 0.058823529411764705
0.00392156862745098 0.09803921568627451 0.00784313725490196
0.027450980392156862 0.09803921568627451 0.00784313725490196
0.07058823529411765 0.09411764705882353 0.00784313725490196
0.10588235294117647 0.09803921568627451 0.00784313725490196
0.13725490196078433 0.09411764705882353 0.00784313725490196
0.1803921568627451 0.09411764705882353 0.011764705882352941
0.2196078431372549 0.09803921568627451 0.011764705882352941
0.25882352941176473 0.09019607843137255 0.01568627450980392
0.3137254901960784 0.08627450980392157 0.0196078431372549
0.3686274509803922 0.08627450980392157 0.0196078431372549
0.4196078431372549 0.07450980392156863 0.027450980392156862
0.4627450980392157 0.0784313725490196 0.03137254901960784
0.5137254901960784 0.07450980392156863 0.03529411764705882
0.5450980392156862 0.07450980392156863 0.0392156862745098
0.5843137254901961 0.06274509803921569 0.043137254901960784
0.6235294117647059 0.06274509803921569 0.043137254901960784
0.6666666666666666 0.06274509803921569 0.047058823529411764
0.6980392156862745 0.06274509803921569 0.050980392156862744
0.7294117647058823 0.06274509803921569 0.054901960784313725
0.7529411764705882 0.06274509803921569 0.054901960784313725
0.7686274509803922 0.06274509803921569 0.054901960784313725
0.7843137254901961 0.058823529411764705 0.050980392156862744
0.8 0.054901960784313725 0.050980392156862744
0.8156862745098039 0.054901960784313725 0.047058823529411764
0.8196078431372549 0.054901960784313725 0.050980392156862744
0.8196078431372549 0.054901960784313725 0.050980392156862744
0.8235294117647058 0.054901960784313725 0.054901960784313725
0.8235294117647058 0.058823529411764705 0.058823529411764705
0.8274509803921568 0.054901960784313725 0.058823529411764705
0.8313725490196079 0.054901960784313725 0.058823529411764705
0.00784313725490196 0.12156862745098039 0.00784313725490196
0.0196078431372549 0.12549019607843137 0.011764705882352941
0.047058823529411764 0.12549019607843137 0.011764705882352941
0.08627450980392157 0.12156862745098039 0.011764705882352941
0.13333333333333333 0.12156862745098039 0.011764705882352941
0.17254901960784313 0.12156862745098039 0.011764705882352941
0.2196078431372549 0.12156862745098039 0.011764705882352941
0.27450980392156865 0.11764705882352941 0.01568627450980392
0.3137254901960784 0.11372549019607843 0.0196078431372549
0.36470588235294116 0.10980392156862745 0.023529411764705882
0.4235294117647059 0.10588235294117647 0.027450980392156862
0.4588235294117647 0.10196078431372549 0.03137254901960784
0.5176470588235295 0.10196078431372549 0.03529411764705882
0.5647058823529412 0.09803921568627451 0.0392156862745098
0.596078431372549 0.09019607843137255 0.047058823529411764
0.6392156862745098 0.09019607843137255 0.050980392156862744
0.6784313725490196 0.08235294117647059 0.054901960784313725
0.6980392156862745 0.07450980392156863 0.054901960784313725
0.7294117647058823 0.07450980392156863 0.058823529411764705
0.7568627450980392 0.07058823529411765 0.058823529411764705
0.7725490196078432 0.07058823529411765 0.058823529411764705
0.788235294117647 0.06666666666666667 0.058823529411764705
0.803921568627451 0.06666666666666667 0.054901960784313725
0.8156862745098039 0.06274509803921569 0.050980392156862744
0.8196078431372549 0.06274509803921569 0.054901960784313725
0.8196078431372549 0.06274509803921569 0.054901960784313725
0.8235294117647058 0.06274509803921569 0.058823529411764705
0.8235294117647058 0.06274509803921569 0.058823529411764705
0.8235294117647058 0.06274509803921569 0.058823529411764705
0.8235294117647058 0.06274509803921569 0.058823529411764705
0.01568627450980392 0.14901960784313725 0.00784313725490196
0.027450980392156862 0.15294117647058825 0.01568627450980392
0.043137254901960784 0.15294117647058825 0.023529411764705882
0.0784313725490196 0.1411764705882353 0.023529411764705882
0.10980392156862745 0.15294117647058825 0.0196078431372549
0.1607843137254902 0.15294117647058825 0.01568627450980392
0.20392156862745098 0.15294117647058825 0.011764705882352941
0.2627450980392157 0.14901960784313725 0.01568627450980392
0.3176470588235294 0.1450980392156863 0.0196078431372549
0.3568627450980392 0.1411764705882353 0.023529411764705882
0.41568627450980394 0.13333333333333333 0.027450980392156862
0.4666666666666667 0.12549019607843137 0.03137254901960784
0.5058823529411764 0.12156862745098039 0.03529411764705882
0.5607843137254902 0.11764705882352941 0.043137254901960784
0.6039215686274509 0.11764705882352941 0.047058823529411764
0.6470588235294118 0.10980392156862745 0.054901960784313725
0.6862745098039216 0.10588235294117647 0.058823529411764705
0.7176470588235294 0.09803921568627451 0.06274509803921569
0.7411764705882353 0.09411764705882353 0.06666666666666667
0.7607843137254902 0.08627450980392157 0.06274509803921569
0.7803921568627451 0.08235294117647059 0.06274509803921569
0.792156862745098 0.07450980392156863 0.058823529411764705
0.807843137254902 0.07058823529411765 0.054901960784313725
0.8156862745098039 0.07058823529411765 0.054901960784313725
0.8196078431372549 0.07058823529411765 0.054901960784313725
0.8235294117647058 0.06666666666666667 0.054901960784313725
0.8196078431372549 0.06666666666666667 0.058823529411764705
0.8235294117647058 0.06666666666666667 0.058823529411764705
0.8235294117647058 0.06666666666666667 0.058823529411764705
0.8313725490196079 0.07058823529411765 0.058823529411764705
0.0196078431372549 0.17254901960784313 0.011764705882352941
0.03137254901960784 0.1843137254901961 0.0196078431372549
0.043137254901960784 0.1803921568627451 0.027450980392156862
0.06274509803921569 0.1803921568627451 0.03137254901960784
0.09019607843137255 0.17254901960784313 0.03137254901960784
0.1411764705882353 0.17254901960784313 0.027450980392156862
0.1843137254901961 0.1803921568627451 0.0196078431372549
0.23137254901960785 0.17254901960784313 0.01568627450980392
0.29411764705882354 0.16862745098039217 0.01568627450980392
0.34901960784313724 0.16470588235294117 0.0196078431372549
0.4 0.16862745098039217 0.023529411764705882
0.4549019607843137 0.1607843137254902 0.027450980392156862
0.5019607843137255 0.1450980392156863 0.03529411764705882
0.5686274509803921 0.1450980392156863 0.043137254901960784
0.6196078431372549 0.1411764705882353 0.047058823529411764
0.6431372549019608 0.13333333333333333 0.054901960784313725
0.6862745098039216 0.12941176470588237 0.058823529411764705
0.7215686274509804 0.13333333333333333 0.06274509803921569
0.7568627450980392 0.12156862745098039 0.06666666666666667
0.7764705882352941 0.11764705882352941 0.07058823529411765
0.788235294117647 0.10196078431372549 0.06666666666666667
0.803921568627451 0.09019607843137255 0.06274509803921569
0.8156862745098039 0.08627450980392157 0.058823529411764705
0.8274509803921568 0.0784313725490196 0.054901960784313725
0.8235294117647058 0.07450980392156863 0.054901960784313725
0.8235294117647058 0.07450980392156863 0.054901960784313725
0.8274509803921568 0.0784313725490196 0.054901960784313725
0.8274509803921568 0.07450980392156863 0.054901960784313725
0.8392156862745098 0.0784313725490196 0.054901960784313725
0.8588235294117647 0.08235294117647059 0.054901960784313725
0.023529411764705882 0.21176470588235294 0.011764705882352941
0.03137254901960784 0.20784313725490197 0.0196078431372549
0.043137254901960784 0.20784313725490197 0.027450980392156862
0.054901960784313725 0.21176470588235294 0.03529411764705882
0.07058823529411765 0.2 0.0392156862745098
0.11372549019607843 0.2 0.0392156862745098
0.14901960784313725 0.20392156862745098 0.03529411764705882
0.21176470588235294 0.20784313725490197 0.023529411764705882
0.2549019607843137 0.20784313725490197 0.023529411764705882
0.3176470588235294 0.20392156862745098 0.0196078431372549
0.39215686274509803 0.19215686274509805 0.023529411764705882
0.44313725490196076 0.19215686274509805 0.027450980392156862
0.5019607843137255 0.18823529411764706 0.03137254901960784
0.5568627450980392 0.17647058823529413 0.0392156862745098
0.592156862745098 0.17254901960784313 0.043137254901960784
0.6431372549019608 0.16470588235294117 0.047058823529411764
0.6941176470588235 0.16470588235294117 0.058823529411764705
0.7254901960784313 0.15294117647058825 0.06274509803921569
0.7725490196078432 0.1568627450980392 0.07058823529411765
0.796078431372549 0.14901960784313725 0.07058823529411765
0.803921568627451 0.13725490196078433 0.07058823529411765
0.8274509803921568 0.13725490196078433 0.07058823529411765
0.8313725490196079 0.12156862745098039 0.06666666666666667
0.8431372549019608 0.10980392156862745 0.06274509803921569
0.8588235294117647 0.11372549019607843 0.058823529411764705
0.8588235294117647 0.09411764705882353 0.054901960784313725
0.8588235294117647 0.09411764705882353 0.054901960784313725
0.8705882352941177 0.10196078431372549 0.050980392156862744
0.8666666666666667 0.09803921568627451 0.050980392156862744
0.8980392156862745 0.10980392156862745 0.050980392156862744
0.023529411764705882 0.23921568627450981 0.01568627450980392
0.03529411764705882 0.23921568627450981 0.023529411764705882
0.043137254901960784 0.23921568627450981 0.03137254901960784
0.054901960784313725 0.23529411764705882 0.0392156862745098
0.06274509803921569 0.23529411764705882 0.043137254901960784
0.08235294117647059 0.23137254901960785 0.047058823529411764
0.10980392156862745 0.23137254901960785 0.043137254901960784
0.16470588235294117 0.22745098039215686 0.0392156862745098
0.23137254901960785 0.23137254901960785 0.03137254901960784
0.28627450980392155 0.23529411764705882 0.023529411764705882
0.3568627450980392 0.23529411764705882 0.0196078431372549
0.41568627450980394 0.2235294117647059 0.023529411764705882
0.49411764705882355 0.21568627450980393 0.03137254901960784
0.5333333333333333 0.20784313725490197 0.03529411764705882
0.5843137254901961 0.2 0.0392156862745098
0.6352941176470588 0.19215686274509805 0.047058823529411764
0.6862745098039216 0.2 0.050980392156862744
0.7215686274509804 0.1803921568627451 0.058823529411764705
0.7725490196078432 0.18823529411764706 0.06666666666666667
0.796078431372549 0.1803921568627451 0.07450980392156863
0.8274509803921568 0.17254901960784313 0.07450980392156863
0.8470588235294118 0.16862745098039217 0.07450980392156863
0.8588235294117647 0.1607843137254902 0.07450980392156863
0.8784313725490196 0.1607843137254902 0.06666666666666667
0.8823529411764706 0.1568627450980392 0.058823529411764705
0.8862745098039215 0.13333333333333333 0.054901960784313725
0.8980392156862745 0.12549019607843137 0.047058823529411764
0.8941176470588236 0.12549019607843137 0.047058823529411764
0.9215686274509803 0.1450980392156863 0.043137254901960784
0.9333333333333333 0.14901960784313725 0.043137254901960784
0.023529411764705882 0.27450980392156865 0.01568627450980392
0.03529411764705882 0.27450980392156865 0.023529411764705882
0.043137254901960784 0.27450980392156865 0.03137254901960784
0.050980392156862744 0.27058823529411763 0.03529411764705882
0.058823529411764705 0.26666666666666666 0.043137254901960784
0.06666666666666667 0.2627450980392157 0.047058823529411764
0.09019607843137255 0.2549019607843137 0.047058823529411764
0.12156862745098039 0.25098039215686274 0.047058823529411764
0.1803921568627451 0.2549019607843137 0.0392156862745098
0.26666666666666666 0.2549019607843137 0.03137254901960784
0.3176470588235294 0.25882352941176473 0.027450980392156862
0.40784313725490196 0.2549019607843137 0.0196078431372549
0.4549019607843137 0.25098039215686274 0.023529411764705882
0.5333333333333333 0.24313725490196078 0.03529411764705882
0.5725490196078431 0.23921568627450981 0.03529411764705882
0.6274509803921569 0.23137254901960785 0.047058823529411764
0.6705882352941176 0.23921568627450981 0.047058823529411764
0.7333333333333333 0.2196078431372549 0.058823529411764705
0.7686274509803922 0.21176470588235294 0.06666666666666667
0.803921568627451 0.22745098039215686 0.07058823529411765
0.8274509803921568 0.22745098039215686 0.07450980392156863
0.8627450980392157 0.2235294117647059 0.0784313725490196
0.8784313725490196 0.20392156862745098 0.07450980392156863
0.8941176470588236 0.20784313725490197 0.07058823529411765
0.9019607843137255 0.18823529411764706 0.06274509803921569
0.9098039215686274 0.1803921568627451 0.058823529411764705
0.9254901960784314 0.18823529411764706 0.050980392156862744
0.9333333333333333 0.16470588235294117 0.043137254901960784
0.9411764705882353 0.16470588235294117 0.0392156862745098
0.9529411764705882 0.17647058823529413 0.0392156862745098
0.023529411764705882 0.3137254901960784 0.01568627450980392
0.03529411764705882 0.30980392156862746 0.023529411764705882
0.043137254901960784 0.30980392156862746 0.03137254901960784
0.050980392156862744 0.3058823529411765 0.03529411764705882
0.058823529411764705 0.2901960784313726 0.043137254901960784
0.06274509803921569 0.29411764705882354 0.047058823529411764
0.07058823529411765 0.2901960784313726 0.050980392156862744
0.08627450980392157 0.28627450980392155 0.050980392156862744
0.12941176470588237 0.2784313725490196 0.047058823529411764
0.20392156862745098 0.2823529411764706 0.0392156862745098
0.29411764705882354 0.28627450980392155 0.03137254901960784
0.3764705882352941 0.2901960784313726 0.023529411764705882
0.4235294117647059 0.28627450980392155 0.023529411764705882
0.5137254901960784 0.2823529411764706 0.027450980392156862
0.5568627450980392 0.2784313725490196 0.03137254901960784
0.611764705882353 0.27450980392156865 0.0392156862745098
0.6509803921568628 0.27058823529411763 0.043137254901960784
0.7019607843137254 0.26666666666666666 0.050980392156862744
0.7647058823529411 0.25882352941176473 0.06274509803921569
0.792156862745098 0.2627450980392157 0.06274509803921569
0.8274509803921568 0.2627450980392157 0.07058823529411765
0.8627450980392157 0.25882352941176473 0.07450980392156863
0.8862745098039215 0.2549019607843137 0.07450980392156863
0.8980392156862745 0.24705882352941178 0.06666666666666667
0.9058823529411765 0.2235294117647059 0.06666666666666667
0.9215686274509803 0.22745098039215686 0.058823529411764705
0.9294117647058824 0.2235294117647059 0.050980392156862744
0.9411764705882353 0.21568627450980393 0.043137254901960784
0.9529411764705882 0.20784313725490197 0.03529411764705882
0.9529411764705882 0.2196078431372549 0.03137254901960784
0.023529411764705882 0.35294117647058826 0.0196078431372549
0.03529411764705882 0.34901960784313724 0.023529411764705882
0.047058823529411764 0.33725490196078434 0.03137254901960784
0.050980392156862744 0.3411764705882353 0.03529411764705882
0.058823529411764705 0.33725490196078434 0.0392156862745098
0.06274509803921569 0.3333333333333333 0.043137254901960784
0.06666666666666667 0.3254901960784314 0.047058823529411764
0.0784313725490196 0.30980392156862746 0.050980392156862744
0.09803921568627451 0.30980392156862746 0.050980392156862744
0.1450980392156863 0.3058823529411765 0.047058823529411764
0.2235294117647059 0.3176470588235294 0.03529411764705882
0.3176470588235294 0.3137254901960784 0.03137254901960784
0.41568627450980394 0.3215686274509804 0.023529411764705882
0.47843137254901963 0.30980392156862746 0.023529411764705882
0.5294117647058824 0.3176470588235294 0.027450980392156862
0.592156862745098 0.3176470588235294 0.03137254901960784
0.6470588235294118 0.3176470588235294 0.0392156862745098
0.7058823529411765 0.3137254901960784 0.043137254901960784
0.7568627450980392 0.3176470588235294 0.054901960784313725
0.7843137254901961 0.3137254901960784 0.058823529411764705
0.8196078431372549 0.3137254901960784 0.06274509803921569
0.8549019607843137 0.3176470588235294 0.06666666666666667
0.8901960784313725 0.3176470588235294 0.07058823529411765
0.9019607843137255 0.3176470588235294 0.06666666666666667
0.9137254901960784 0.3058823529411765 0.058823529411764705
0.9254901960784314 0.30196078431372547 0.050980392156862744
0.9333333333333333 0.2901960784313726 0.043137254901960784
0.9450980392156862 0.28627450980392155 0.03529411764705882
0.9529411764705882 0.2627450980392157 0.027450980392156862
0.9568627450980393 0.2823529411764706 0.027450980392156862
0.023529411764705882 0.39215686274509803 0.0196078431372549
0.03137254901960784 0.38823529411764707 0.023529411764705882
0.043137254901960784 0.3764705882352941 0.03137254901960784
0.047058823529411764 0.3803921568627451 0.03529411764705882
0.054901960784313725 0.37254901960784315 0.0392156862745098
0.06274509803921569 0.3607843137254902 0.043137254901960784
0.06666666666666667 0.35294117647058826 0.047058823529411764
0.07058823529411765 0.35294117647058826 0.047058823529411764
0.08235294117647059 0.3333333333333333 0.050980392156862744
0.11764705882352941 0.32941176470588235 0.047058823529411764
0.17647058823529413 0.3333333333333333 0.043137254901960784
0.2823529411764706 0.3411764705882353 0.03137254901960784
0.3686274509803922 0.3568627450980392 0.027450980392156862
0.4549019607843137 0.3568627450980392 0.023529411764705882
0.5137254901960784 0.34901960784313724 0.023529411764705882
0.5686274509803921 0.3568627450980392 0.027450980392156862
0.6274509803921569 0.3607843137254902 0.03529411764705882
0.6784313725490196 0.35294117647058826 0.0392156862745098
0.7333333333333333 0.34901960784313724 0.047058823529411764
0.7764705882352941 0.34509803921568627 0.050980392156862744
0.8117647058823529 0.3686274509803922 0.054901960784313725
0.8470588235294118 0.37254901960784315 0.06274509803921569
0.8784313725490196 0.3607843137254902 0.06666666666666667
0.9098039215686274 0.3764705882352941 0.06274509803921569
0.9215686274509803 0.3568627450980392 0.058823529411764705
0.9294117647058824 0.34509803921568627 0.047058823529411764
0.9411764705882353 0.36470588235294116 0.0392156862745098
0.9529411764705882 0.3568627450980392 0.03137254901960784
0.9607843137254902 0.35294117647058826 0.023529411764705882
0.9607843137254902 0.3333333333333333 0.023529411764705882
0.027450980392156862 0.4235294117647059 0.0196078431372549
0.03137254901960784 0.4196078431372549 0.023529411764705882
0.0392156862745098 0.41568627450980394 0.03137254901960784
0.047058823529411764 0.41568627450980394 0.03529411764705882
0.054901960784313725 0.4 0.0392156862745098
0.058823529411764705 0.39215686274509803 0.043137254901960784
0.06274509803921569 0.38823529411764707 0.043137254901960784
0.06666666666666667 0.38823529411764707 0.043137254901960784
0.07058823529411765 0.3764705882352941 0.047058823529411764
0.09019607843137255 0.3607843137254902 0.047058823529411764
0.13333333333333333 0.35294117647058826 0.043137254901960784
0.17647058823529413 0.3607843137254902 0.0392156862745098
0.2980392156862745 0.3843137254901961 0.03137254901960784
